images/icon-x-outline.svg

<svg class="w-6 h-6" width="24" height="24" viewBox="0 0 24 24" fill="none" xmlns="http://www.w3.org/2000/svg"><path d="M13.5752 3.58785C15.2923 2.69324 17.5324 2.74899 19.3115 4.15133C19.3985 4.13033 19.4992 4.10363 19.6123 4.06539C19.8904 3.9714 20.1894 3.84084 20.4727 3.70211C20.7535 3.56459 21.0049 3.42587 21.1865 3.32125C21.2769 3.26919 21.349 3.22562 21.3975 3.19625C21.4217 3.18158 21.4405 3.17025 21.4522 3.16305C21.4577 3.15961 21.4615 3.15671 21.4639 3.15524H21.4658L21.4668 3.15426H21.4658C21.8232 2.92856 22.2845 2.95217 22.6172 3.21285C22.908 3.4409 23.0457 3.8075 22.9863 4.16403L22.9483 4.31637V4.31832L22.9473 4.32028C22.9466 4.32223 22.9454 4.32513 22.9443 4.32809C22.9423 4.33397 22.9399 4.34187 22.9365 4.35153C22.9297 4.37112 22.9205 4.39847 22.9082 4.43258C22.8835 4.50106 22.8468 4.59812 22.7998 4.71676C22.7062 4.95344 22.5673 5.28148 22.3848 5.65328C22.0839 6.26615 21.6401 7.04085 21.0547 7.72555C22.3445 18.1499 11.0183 25.6897 1.88771 20.1132L1.44728 19.8339C1.07254 19.5856 0.910374 19.1168 1.04982 18.6894C1.18937 18.2624 1.59619 17.9808 2.04494 18.0009C3.40575 18.0628 4.75243 17.7802 5.91212 17.2002C1.55099 14.7939 -0.367632 9.10181 2.12111 4.52242L2.18654 4.41793C2.35225 4.18629 2.61124 4.03431 2.89845 4.00485C3.22665 3.97135 3.55058 4.1026 3.76369 4.35446C5.53242 6.44456 8.16475 7.75816 10.8916 7.97262C10.9026 5.97977 12.0241 4.39605 13.5752 3.58785ZM18.3174 5.93063C17.1474 4.83889 15.6363 4.77035 14.5 5.36227C13.3853 5.94302 12.6281 7.15838 12.9776 8.79C13.0397 9.0802 12.9702 9.38361 12.7871 9.61715C12.6039 9.85072 12.326 9.99124 12.0293 9.99996C8.85378 10.0933 5.68513 8.90712 3.334 6.77828C2.17413 10.5587 4.34448 14.859 8.28712 16.042C8.63564 16.1465 8.90039 16.4325 8.97755 16.788C9.04502 17.0992 8.95977 17.4211 8.75392 17.6572L8.65822 17.7529C7.727 18.5676 6.62472 19.1646 5.44435 19.54C12.655 21.7442 20.3027 15.6202 19.0127 7.55758C18.9622 7.24115 19.0665 6.91997 19.293 6.69332C19.4748 6.51154 19.6439 6.30513 19.8027 6.08883C19.5438 6.15261 19.2703 6.20016 19 6.20016C18.7467 6.20016 18.5026 6.10345 18.3174 5.93063Z" fill="white" style="fill-opacity:1;"/></svg>

<svg xmlns="http://www.w3.org/2000/svg" width="24" height="24" fill="none" class="w-6 h-6" viewBox="0 0 24 24"><path fill="#fff" d="M13.575 3.588a5.28 5.28 0 0 1 5.736.563q.131-.029.301-.086c.278-.094.577-.224.86-.363a12 12 0 0 0 .925-.506l.055-.033.012-.008h.002a1.001 1.001 0 0 1 1.52 1.009l-.038.152v.004l-.004.008-.008.024q-.009.03-.028.08-.037.106-.108.285c-.094.236-.233.564-.415.936-.301.613-.745 1.388-1.33 2.073C22.345 18.15 11.018 25.69 1.888 20.113l-.44-.28a1 1 0 0 1 .597-1.832 7.9 7.9 0 0 0 3.867-.8c-4.361-2.407-6.28-8.1-3.79-12.679l.065-.104a1.002 1.002 0 0 1 1.577-.064c1.768 2.09 4.4 3.404 7.128 3.619.01-1.993 1.132-3.577 2.683-4.385m4.742 2.343c-1.17-1.092-2.68-1.16-3.817-.569-1.115.581-1.872 1.796-1.522 3.428a1 1 0 0 1-.949 1.21c-3.175.093-6.344-1.093-8.695-3.222-1.16 3.78 1.01 8.081 4.953 9.264a1 1 0 0 1 .467 1.615l-.096.096a9 9 0 0 1-3.214 1.787c7.211 2.204 14.859-3.92 13.569-11.982a1 1 0 0 1 .28-.865c.182-.181.35-.388.51-.604A3.4 3.4 0 0 1 19 6.2c-.253 0-.497-.097-.683-.27"/></svg>
